src/lib/packages/icons/src/assets/filled/keypad.svg

<svg xmlns="http://www.w3.org/2000/svg" width="24" height="24" fill="none"><path fill="currentColor" d="M14.5 3.5c0 1.103-.897 2-2 2s-2-.897-2-2 .897-2 2-2 2 .897 2 2Zm4 2c1.103 0 2-.897 2-2s-.897-2-2-2-2 .897-2 2 .897 2 2 2Zm-12-4c-1.103 0-2 .897-2 2s.897 2 2 2 2-.897 2-2-.897-2-2-2Zm6 5.667c-1.103 0-2 .897-2 2s.897 2 2 2 2-.897 2-2-.897-2-2-2Zm6 0c-1.103 0-2 .897-2 2s.897 2 2 2 2-.897 2-2-.897-2-2-2Zm-12 0c-1.103 0-2 .897-2 2s.897 2 2 2 2-.897 2-2-.897-2-2-2Zm6 5.666c-1.103 0-2 .897-2 2s.897 2 2 2 2-.897 2-2-.897-2-2-2Zm6 0c-1.103 0-2 .897-2 2s.897 2 2 2 2-.897 2-2-.897-2-2-2Zm-12 0c-1.103 0-2 .897-2 2s.897 2 2 2 2-.897 2-2-.897-2-2-2Zm6 5.667c-1.103 0-2 .897-2 2s.897 2 2 2 2-.897 2-2-.897-2-2-2Z"/></svg>

<svg width="24" height="24" viewBox="0 0 24 24" fill="none" xmlns="http://www.w3.org/2000/svg">
<path d="M14.5 3.5C14.5 4.603 13.603 5.5 12.5 5.5C11.397 5.5 10.5 4.603 10.5 3.5C10.5 2.397 11.397 1.5 12.5 1.5C13.603 1.5 14.5 2.397 14.5 3.5ZM18.5 5.5C19.603 5.5 20.5 4.603 20.5 3.5C20.5 2.397 19.603 1.5 18.5 1.5C17.397 1.5 16.5 2.397 16.5 3.5C16.5 4.603 17.397 5.5 18.5 5.5ZM6.5 1.5C5.397 1.5 4.5 2.397 4.5 3.5C4.5 4.603 5.397 5.5 6.5 5.5C7.603 5.5 8.5 4.603 8.5 3.5C8.5 2.397 7.603 1.5 6.5 1.5ZM12.5 7.16699C11.397 7.16699 10.5 8.06399 10.5 9.16699C10.5 10.27 11.397 11.167 12.5 11.167C13.603 11.167 14.5 10.27 14.5 9.16699C14.5 8.06399 13.603 7.16699 12.5 7.16699ZM18.5 7.16699C17.397 7.16699 16.5 8.06399 16.5 9.16699C16.5 10.27 17.397 11.167 18.5 11.167C19.603 11.167 20.5 10.27 20.5 9.16699C20.5 8.06399 19.603 7.16699 18.5 7.16699ZM6.5 7.16699C5.397 7.16699 4.5 8.06399 4.5 9.16699C4.5 10.27 5.397 11.167 6.5 11.167C7.603 11.167 8.5 10.27 8.5 9.16699C8.5 8.06399 7.603 7.16699 6.5 7.16699ZM12.5 12.833C11.397 12.833 10.5 13.73 10.5 14.833C10.5 15.936 11.397 16.833 12.5 16.833C13.603 16.833 14.5 15.936 14.5 14.833C14.5 13.73 13.603 12.833 12.5 12.833ZM18.5 12.833C17.397 12.833 16.5 13.73 16.5 14.833C16.5 15.936 17.397 16.833 18.5 16.833C19.603 16.833 20.5 15.936 20.5 14.833C20.5 13.73 19.603 12.833 18.5 12.833ZM6.5 12.833C5.397 12.833 4.5 13.73 4.5 14.833C4.5 15.936 5.397 16.833 6.5 16.833C7.603 16.833 8.5 15.936 8.5 14.833C8.5 13.73 7.603 12.833 6.5 12.833ZM12.5 18.5C11.397 18.5 10.5 19.397 10.5 20.5C10.5 21.603 11.397 22.5 12.5 22.5C13.603 22.5 14.5 21.603 14.5 20.5C14.5 19.397 13.603 18.5 12.5 18.5Z" fill="currentColor"/>
</svg>
